X: 209
T:My Wife's a Wanton Wee Thing
% Nottingham Music Database
P:AABB
S:EF
M:6/8
K:D
P:A
|:f/2e/2|"D"d2A BdA|"D"d3 A2B|"C"=cdc cGE|"C"=c3 E2c|
"D"d2A BdA|"D"d3 A2G|"D"FDF "C"E=CE|"D"DED D2:|
P:B
|:F/2G/2|"D"ABA FDF|"D"A3 =c3|"C"G=cG ECE|"C"G3 B3|"D"AdA FDF|"D"f3 "A7"a2g|
"D"fdf "A7"ece|"D"ded "A7"dfg|"D"aba fdf|"D"aba fdf|"C"gag e=ce|
"C"gag e=ce|"D"aba fdf|"D"aba "G"gab|"D"fga "A7"gec|"D"d3 d2:|<end>
<start>
